assets/grok-dark.svg

<?xml version="1.0" encoding="UTF-8"?>
<svg id="Layer_1" xmlns="http://www.w3.org/2000/svg" version="1.1" viewBox="0 0 256 256">
  <!-- Generator: Adobe Illustrator 29.7.0, SVG Export Plug-In . SVG Version: 2.1.1 Build 14)  -->
  <defs>
    <style>
      .st0 {
        fill: #fff;
        fill-rule: evenodd;
      }
    </style>
  </defs>
  <rect width="256" height="256" rx="60" ry="60"/>
  <path class="st0" d="M105.45,152.33l65.91-48.72c3.23-2.4,7.85-1.46,9.39,2.25,8.1,19.57,4.48,43.08-11.65,59.23-16.12,16.14-38.56,19.68-59.06,11.62l-22.4,10.38c32.13,21.98,71.14,16.55,95.52-7.87,19.34-19.37,25.33-45.76,19.73-69.56l.05.06c-8.12-34.96,2-48.94,22.72-77.52.5-.68.99-1.35,1.48-2.05l-27.27,27.3v-.08l-94.45,94.98M91.84,164.16c-23.07-22.06-19.08-56.19.59-75.87,14.55-14.57,38.39-20.51,59.2-11.77l22.35-10.33c-4.64-3.42-9.73-6.2-15.11-8.26-27.67-11.33-59.44-4.92-80.57,16.24-20.93,20.95-27.51,53.17-16.21,80.67,8.44,20.55-5.39,35.08-19.33,49.75-4.95,5.2-9.91,10.4-13.9,15.9l62.95-56.3"/>
</svg>

<svg width="256" height="256" viewBox="0 0 256 256" fill="none" xmlns="http://www.w3.org/2000/svg">
<rect width="256" height="256" fill="#1E1E1E"/>
<g clip-path="url(#clip0_0_1)">
<path d="M196 0H60C26.8629 0 0 26.8629 0 60V196C0 229.137 26.8629 256 60 256H196C229.137 256 256 229.137 256 196V60C256 26.8629 229.137 0 196 0Z" fill="#242938"/>
<path fill-rule="evenodd" clip-rule="evenodd" d="M105.45 152.33L171.36 103.61C174.59 101.21 179.21 102.15 180.75 105.86C188.85 125.43 185.23 148.94 169.1 165.09C152.98 181.23 130.54 184.77 110.04 176.71L87.64 187.09C119.77 209.07 158.78 203.64 183.16 179.22C202.5 159.85 208.49 133.46 202.89 109.66L202.94 109.72C194.82 74.76 204.94 60.78 225.66 32.2C226.16 31.52 226.65 30.85 227.14 30.15L199.87 57.45V57.37L105.42 152.35M91.84 164.16C68.77 142.1 72.76 107.97 92.43 88.29C106.98 73.72 130.82 67.78 151.63 76.52L173.98 66.19C169.34 62.77 164.25 59.99 158.87 57.93C131.2 46.6 99.43 53.01 78.3 74.17C57.37 95.12 50.79 127.34 62.09 154.84C70.53 175.39 56.7 189.92 42.76 204.59C37.81 209.79 32.85 214.99 28.86 220.49L91.81 164.19" fill="white"/>
</g>
<defs>
<clipPath id="clip0_0_1">
<rect width="256" height="256" fill="white"/>
</clipPath>
</defs>
</svg>
